dist/img/menu/menu-icon10.svg

<svg width="22" height="22" viewBox="0 0 22 22" fill="none" xmlns="http://www.w3.org/2000/svg">
<path d="M11.0365 20.0997H19.2592C19.7635 20.0997 20.1728 19.6904 20.1728 19.1861V2.74089C20.1728 2.23657 19.7634 1.82729 19.2592 1.82729H11.0365C10.5313 1.82729 10.1229 1.41891 10.1229 0.913687C10.1229 0.408461 10.5313 0 11.0365 0H19.2592C20.7703 0 22 1.22977 22 2.74089V19.1861C22 20.6972 20.7703 21.9269 19.2592 21.9269H11.0365C10.5313 21.9269 10.1229 21.5185 10.1229 21.0133C10.1229 20.5081 10.5313 20.0997 11.0365 20.0997Z" fill="#BFC0C4"/>
<path d="M0.27225 10.313L5.82708 4.83124C6.18522 4.47675 6.76444 4.48135 7.11893 4.84039C7.47343 5.19944 7.46977 5.77776 7.10978 6.13225L3.14011 10.0498H13.7774C14.2826 10.0498 14.691 10.4582 14.691 10.9634C14.691 11.4687 14.2826 11.8771 13.7774 11.8771H3.14011L7.10978 15.7947C7.46973 16.1492 7.47248 16.7275 7.11893 17.0865C6.93988 17.2674 6.70416 17.3588 6.46843 17.3588C6.23636 17.3588 6.00432 17.2711 5.82708 17.0956L0.27225 11.6139C0.0986562 11.4422 0 11.2082 0 10.9634C0 10.7186 0.0977539 10.4857 0.27225 10.313Z" fill="#BFC0C4"/>
</svg>

<svg width="22" height="22" fill="none" xmlns="http://www.w3.org/2000/svg"><path d="M11.037 20.1h8.222c.505 0 .914-.41.914-.914V2.741a.914.914 0 00-.914-.914h-8.223a.913.913 0 110-1.827h8.223A2.744 2.744 0 0122 2.74v16.446c0 1.511-1.23 2.74-2.74 2.74h-8.224a.913.913 0 110-1.826z" fill="#BFC0C4"/><path d="M.272 10.313l5.555-5.482A.913.913 0 117.11 6.132L3.14 10.05h10.637a.913.913 0 110 1.827H3.14l3.97 3.918a.913.913 0 11-1.283 1.3l-5.555-5.48a.915.915 0 010-1.301z" fill="#BFC0C4"/></svg>
